src/favicon.svg

<svg width="512" height="512" viewBox="0 0 512 512" fill="none" xmlns="http://www.w3.org/2000/svg">
<rect width="512" height="512" fill="#FFE42F"/>
<path d="M116.872 471V345.909H201.162V367.714H143.32V397.521H196.825V419.327H143.32V449.195H201.406V471H116.872ZM290.048 381.885C289.559 376.958 287.462 373.13 283.757 370.402C280.051 367.674 275.022 366.31 268.67 366.31C264.354 366.31 260.709 366.92 257.737 368.142C254.764 369.323 252.484 370.972 250.896 373.089C249.349 375.207 248.575 377.609 248.575 380.297C248.493 382.536 248.962 384.491 249.98 386.161C251.038 387.83 252.484 389.276 254.316 390.497C256.149 391.678 258.266 392.716 260.669 393.612C263.071 394.467 265.636 395.2 268.365 395.811L279.603 398.499C285.06 399.72 290.068 401.349 294.629 403.385C299.19 405.421 303.139 407.925 306.478 410.898C309.817 413.87 312.403 417.372 314.235 421.403C316.109 425.435 317.065 430.056 317.106 435.268C317.065 442.924 315.111 449.561 311.243 455.18C307.415 460.759 301.877 465.096 294.629 468.19C287.422 471.244 278.728 472.771 268.548 472.771C258.449 472.771 249.654 471.224 242.162 468.129C234.71 465.035 228.887 460.454 224.693 454.386C220.539 448.278 218.361 440.725 218.157 431.726H243.75C244.035 435.92 245.236 439.422 247.353 442.232C249.511 445 252.382 447.098 255.966 448.523C259.59 449.907 263.682 450.599 268.243 450.599C272.722 450.599 276.61 449.948 279.909 448.645C283.248 447.342 285.833 445.53 287.666 443.209C289.498 440.888 290.414 438.221 290.414 435.207C290.414 432.398 289.58 430.036 287.91 428.122C286.281 426.208 283.879 424.58 280.703 423.236C277.567 421.892 273.719 420.67 269.159 419.571L255.538 416.151C244.992 413.585 236.664 409.574 230.556 404.118C224.449 398.661 221.415 391.312 221.456 382.068C221.415 374.494 223.431 367.877 227.502 362.217C231.615 356.557 237.255 352.139 244.422 348.963C251.588 345.787 259.732 344.199 268.853 344.199C278.137 344.199 286.241 345.787 293.163 348.963C300.126 352.139 305.542 356.557 309.41 362.217C313.279 367.877 315.274 374.433 315.396 381.885H290.048ZM334.896 345.909H367.512L401.961 429.955H403.427L437.876 345.909H470.492V471H444.839V389.581H443.8L411.428 470.389H393.96L361.587 389.276H360.549V471H334.896V345.909Z" fill="#3C444F"/>
</svg>

<svg width="512" height="512" fill="none" xmlns="http://www.w3.org/2000/svg"><path fill="#FFE42F" d="M0 0h512v512H0z"/><path d="M116.9 471V346h84.3v21.7h-57.9v29.8h53.5v21.8h-53.5v29.9h58.1V471H117ZM290 381.9c-.4-5-2.5-8.8-6.2-11.5a25 25 0 0 0-15.1-4c-4.3 0-8 .5-11 1.7s-5.2 2.9-6.8 5a12 12 0 0 0-2.3 7.2c-.1 2.2.4 4.2 1.4 5.9 1 1.6 2.5 3 4.3 4.3a33 33 0 0 0 6.4 3.1c2.4.9 5 1.6 7.7 2.2l11.2 2.7a79.2 79.2 0 0 1 15 4.9c4.6 2 8.5 4.5 11.9 7.5a31.2 31.2 0 0 1 10.6 24.4c0 7.6-2 14.3-5.9 19.9-3.8 5.6-9.3 9.9-16.6 13-7.2 3-15.9 4.6-26 4.6a68.8 68.8 0 0 1-26.4-4.7c-7.5-3-13.3-7.6-17.5-13.7a41 41 0 0 1-6.5-22.7h25.6c.2 4.2 1.4 7.7 3.6 10.5a20 20 0 0 0 8.6 6.3c3.6 1.4 7.7 2.1 12.2 2.1 4.5 0 8.4-.7 11.7-2 3.3-1.3 6-3 7.8-5.4 1.8-2.3 2.7-5 2.7-8 0-2.8-.8-5.2-2.5-7a19 19 0 0 0-7.2-5c-3.1-1.3-7-2.5-11.5-3.6l-13.7-3.4a57.1 57.1 0 0 1-25-12 28 28 0 0 1-9-22.1c0-7.6 2-14.2 6-19.9 4.1-5.6 9.8-10 17-13.2a59.7 59.7 0 0 1 24.4-4.8c9.2 0 17.3 1.6 24.3 4.8a35 35 0 0 1 22.2 33H290Zm44.9-36h32.6l34.5 84h1.4l34.5-84h32.6V471h-25.7v-81.4h-1l-32.4 80.8H394l-32.4-81.1h-1V471h-25.7V346Z" fill="#3C444F"/></svg>
